; generated by Slic3r Prusa Edition 1.41.0+ on 2018-12-12 at 00:54:38

; 

; external perimeters extrusion width = 0.45mm
; perimeters extrusion width = 0.45mm
; infill extrusion width = 0.45mm
; solid infill extrusion width = 0.45mm
; top infill extrusion width = 0.40mm
; first layer extrusion width = 0.42mm

; external perimeters extrusion width = 0.45mm
; perimeters extrusion width = 0.45mm
; infill extrusion width = 0.45mm
; solid infill extrusion width = 0.45mm
; top infill extrusion width = 0.40mm
; first layer extrusion width = 0.42mm

; external perimeters extrusion width = 0.45mm
; perimeters extrusion width = 0.45mm
; infill extrusion width = 0.45mm
; solid infill extrusion width = 0.45mm
; top infill extrusion width = 0.40mm
; first layer extrusion width = 0.42mm

; external perimeters extrusion width = 0.45mm
; perimeters extrusion width = 0.45mm
; infill extrusion width = 0.45mm
; solid infill extrusion width = 0.45mm
; top infill extrusion width = 0.40mm
; first layer extrusion width = 0.42mm

M201 X1000 Y1000 Z1000 E5000 ; sets maximum accelerations, mm/sec^2
M203 X200 Y200 Z12 E120 ; sets maximum feedrates, mm/sec
M204 P1250 R1250 T1250 ; sets acceleration (P, T) and retract acceleration (R), mm/sec^2
M205 X8.00 Y8.00 Z0.40 E1.50 ; sets the jerk limits, mm/sec
M205 S0 T0 ; sets the minimum extruding and travel feed rate, mm/sec
M107
M115 U3.4.1 ; tell printer latest fw version
M83  ; extruder relative mode
M104 S215 ; set extruder temp
M140 S60 ; set bed temp
M190 S60 ; wait for bed temp
M109 S215 ; wait for extruder temp
G28 W ; home all without mesh bed level
G80 ; mesh bed leveling
G1 Y-3.0 F1000.0 ; go outside print area
G92 E0.0
G1 X60.0 E9.0  F1000.0 ; intro line
M73 Q0 S23
M73 P0 R22
G1 X100.0 E12.5  F1000.0 ; intro line
G92 E0.0
M221 S95
M900 K30; Filament gcode
G21 ; set units to millimeters
G90 ; use absolute coordinates
M83 ; use relative distances for extrusion
T0
M900 K30; Filament gcode
;BEFORE_LAYER_CHANGE
G92 E0.0
;0.2


G1 E-0.80000 F2100.00000
G1 Z0.600 F10800.000
;AFTER_LAYER_CHANGE
;0.2
G1 X102.674 Y78.853
G1 Z0.200
G1 E0.80000 F2100.00000
M204 S1000
G1 F1200
G1 X103.011 Y78.423 E0.01714
G1 X103.448 Y78.088 E0.01726
G1 X103.954 Y77.872 E0.01726
G1 X104.498 Y77.790 E0.01726
G1 X145.452 Y77.789 E1.28407
G1 X146.251 Y77.942 E0.02552
G1 X146.942 Y78.378 E0.02563
G1 X147.423 Y79.035 E0.02552
G1 X147.632 Y79.826 E0.02563
G1 X147.585 Y108.336 E0.89392
G1 X147.422 Y110.109 E0.05582
G1 X147.166 Y111.747 E0.05199
G1 X146.397 Y114.776 E0.09799
G1 X145.319 Y117.543 E0.09309
G1 X144.025 Y119.975 E0.08639
G1 X142.573 Y122.110 E0.08096
G1 X141.047 Y123.937 E0.07464
G1 X139.467 Y125.521 E0.07014
G1 X137.833 Y126.909 E0.06722
G1 X136.005 Y128.225 E0.07063
G1 X133.348 Y129.779 E0.09651
G1 X131.499 Y130.644 E0.06400
G1 X129.684 Y131.329 E0.06082
G1 X128.063 Y131.797 E0.05291
G1 X126.455 Y132.104 E0.05132
G1 X124.992 Y132.211 E0.04600
G1 X123.442 Y132.092 E0.04876
G1 X121.931 Y131.799 E0.04826
G1 X120.340 Y131.339 E0.05192
G1 X118.567 Y130.674 E0.05937
G1 X116.700 Y129.806 E0.06454
G1 X114.888 Y128.793 E0.06511
G1 X113.030 Y127.561 E0.06990
G1 X110.559 Y125.547 E0.09996
G1 X108.969 Y123.957 E0.07049
G1 X107.431 Y122.117 E0.07521
G1 X105.978 Y119.982 E0.08097
G1 X104.701 Y117.588 E0.08508
G1 X103.634 Y114.871 E0.09152
G1 X103.178 Y113.301 E0.05126
G1 X102.836 Y111.758 E0.04956
G1 X102.578 Y110.112 E0.05224
G1 X102.418 Y108.396 E0.05403
G1 X102.363 Y106.632 E0.05533
G1 X102.363 Y79.952 E0.83653
G1 X102.446 Y79.382 E0.01805
G1 X102.650 Y78.908 E0.01617
; PURGING FINISHED
G1 F8640
G1 X103.011 Y78.423 E-0.13970
G1 X103.448 Y78.088 E-0.12709
G1 X103.954 Y77.872 E-0.12709
G1 X104.498 Y77.790 E-0.12709
G1 X105.533 Y77.790 E-0.23902
G1 E-0.04000 F2100.00000
G1 Z0.800 F10800.000
G1 X124.773 Y126.885
G1 Z0.200
G1 E0.80000 F2100.00000
G1 F1200
G1 X124.893 Y126.838 E0.00404
G1 X125.032 Y126.830 E0.00435
G1 X125.133 Y126.889 E0.00366
G1 X125.168 Y126.933 E0.00179
G1 X125.183 Y127.043 E0.00349
G1 X125.142 Y127.127 E0.00291
G1 X124.867 Y127.398 E0.01211
G1 X124.506 Y127.677 E0.01429
G1 X124.544 Y127.300 E0.01189
G1 X124.604 Y127.078 E0.00719
G1 X124.674 Y126.967 E0.00412
G1 X124.727 Y126.923 E0.00216
G1 X124.886 Y126.948 F10800.000
G1 F8640
G1 X124.893 Y126.838 E-0.04312
G1 X125.032 Y126.830 E-0.03203
G1 X125.133 Y126.889 E-0.02694
G1 X125.168 Y126.933 E-0.01315
G1 X125.183 Y127.043 E-0.02567
G1 X125.142 Y127.127 E-0.02144
G1 X124.867 Y127.398 E-0.08922
G1 X124.506 Y127.677 E-0.10525
G1 X124.544 Y127.300 E-0.08759
G1 X124.604 Y127.078 E-0.05296
G1 X124.674 Y126.967 E-0.03034
G1 X124.727 Y126.923 E-0.01590
G1 E-0.25639 F2100.00000
G1 Z0.800 F10800.000
G1 X128.099 Y126.968
G1 Z0.200
G1 E0.80000 F2100.00000
G1 F1200
G1 X128.137 Y126.889 E0.00275
G1 X128.192 Y126.841 E0.00229
G1 X128.245 Y126.824 E0.00176
G1 X128.394 Y126.830 E0.00467
G1 X128.462 Y126.959 E0.00458
G1 X128.479 Y127.060 E0.00322
G1 X128.464 Y127.153 E0.00296
G1 X128.414 Y127.265 E0.00384
G1 X128.154 Y127.697 E0.01582
G1 X128.073 Y127.314 E0.01230
G1 X128.094 Y127.028 E0.00898
G1 X128.184 Y126.946 F10800.000
G1 F8640
G1 X128.137 Y126.889 E-0.03356
G1 X128.192 Y126.841 E-0.01690
G1 X128.245 Y126.824 E-0.01300
G1 X128.394 Y126.830 E-0.03436
G1 X128.462 Y126.959 E-0.03371
G1 X128.479 Y127.060 E-0.02371
G1 X128.464 Y127.153 E-0.02179
G1 X128.414 Y127.265 E-0.02825
G1 X128.154 Y127.697 E-0.11648
G1 X128.073 Y127.314 E-0.09057
G1 X128.094 Y127.028 E-0.06610
G1 E-0.32157 F2100.00000
G1 Z0.800 F10800.000
G1 X131.628 Y123.983
G1 Z0.200
G1 E0.80000 F2100.00000
G1 F1200
G1 X131.575 Y123.924 E0.00412
G1 X131.468 Y123.856 E0.00661
G1 X131.450 Y123.848 E0.00097
G1 X131.414 Y123.828 E0.00204
G1 X131.379 Y123.808 E0.00194
G1 X131.366 Y123.795 E0.00080
G1 F8640
G1 X131.379 Y123.808 E-0.00410
G1 E-0.79590 F2100.00000
G1 Z0.800 F10800.000
G1 X124.569 Y123.816
G1 Z0.200
G1 E0.80000 F2100.00000
G1 F1200
G1 X124.360 Y124.093 E0.01090
G1 X124.218 Y124.182 E0.00525
G1 X124.073 Y124.060 E0.00595
G1 X123.762 Y123.894 E0.01104
G1 X124.200 Y123.804 E0.01402
G1 X124.509 Y123.814 E0.00968
G1 X124.292 Y124.026 F10800.000
G1 F8640
G1 X124.360 Y124.093 E-0.07318
G1 X124.218 Y124.182 E-0.03865
G1 X124.073 Y124.060 E-0.04379
G1 X123.762 Y123.894 E-0.08128
G1 X124.200 Y123.804 E-0.10325
G1 X124.509 Y123.814 E-0.07128
G1 E-0.38857 F2100.00000
G1 Z0.800 F10800.000
G1 X115.235 Y119.612
G1 Z0.200
G1 E0.80000 F2100.00000
G1 F1200
G1 X115.185 Y119.740 E0.00432
G1 X114.998 Y120.001 E0.01007
G1 X114.967 Y119.678 E0.01020
G1 X114.969 Y119.428 E0.00784
G1 X115.027 Y119.375 E0.00245
G1 X115.181 Y119.325 E0.00507
G1 X115.238 Y119.426 E0.00363
G1 X115.242 Y119.552 E0.00397
G1 X115.105 Y119.658 F10800.000
G1 F8640
G1 X115.185 Y119.740 E-0.04536
G1 X114.998 Y120.001 E-0.07413
G1 X114.967 Y119.678 E-0.07511
G1 X114.969 Y119.428 E-0.05774
G1 X115.027 Y119.375 E-0.01806
G1 X115.181 Y119.325 E-0.03730
G1 X115.238 Y119.426 E-0.02671
G1 X115.242 Y119.552 E-0.02922
G1 E-0.43635 F2100.00000
G1 Z0.800 F10800.000
G1 X111.437 Y118.515
G1 Z0.200
G1 E0.80000 F2100.00000
G1 F1200
G1 X111.411 Y118.601 E0.00281
G1 X111.329 Y118.691 E0.00381
G1 X111.167 Y118.785 E0.00588
G1 X110.729 Y118.934 E0.01449
G1 X110.910 Y118.551 E0.01329
G1 X111.004 Y118.439 E0.00458
G1 X111.102 Y118.371 E0.00373
G1 X111.182 Y118.342 E0.00268
G1 X111.347 Y118.348 E0.00518
G1 X111.427 Y118.457 E0.00424
G1 X111.366 Y118.569 F10800.000
G1 F8640
G1 X111.411 Y118.601 E-0.03350
G1 X111.329 Y118.691 E-0.02808
G1 X111.167 Y118.785 E-0.04332
G1 X110.729 Y118.934 E-0.10669
G1 X110.910 Y118.551 E-0.09788
G1 X111.004 Y118.439 E-0.03370
G1 X111.102 Y118.371 E-0.02744
G1 X111.182 Y118.342 E-0.01971
G1 X111.347 Y118.348 E-0.03812
G1 X111.427 Y118.457 E-0.03123
G1 E-0.34033 F2100.00000
G1 Z0.800 F10800.000
G1 X110.048 Y115.608
G1 Z0.200
G1 E0.80000 F2100.00000
G1 F1200
G1 X109.937 Y115.631 E0.00355
G1 X109.860 Y115.619 E0.00245
G1 X109.522 Y115.402 E0.01261
G1 X109.565 Y115.242 E0.00520
G1 X109.794 Y115.233 E0.00719
G1 X109.903 Y115.251 E0.00348
G1 X110.018 Y115.304 E0.00396
G1 X110.084 Y115.359 E0.00270
G1 X110.147 Y115.473 E0.00408
G1 X110.096 Y115.573 E0.00352
G1 X109.945 Y115.561 F10800.000
G1 F8640
G1 X109.937 Y115.631 E-0.03908
G1 X109.860 Y115.619 E-0.01804
G1 X109.522 Y115.402 E-0.09284
G1 X109.565 Y115.242 E-0.03829
G1 X109.794 Y115.233 E-0.05294
G1 X109.903 Y115.251 E-0.02561
G1 X110.018 Y115.304 E-0.02918
G1 X110.084 Y115.359 E-0.01988
G1 X110.147 Y115.473 E-0.03005
G1 X110.096 Y115.573 E-0.02589
G1 E-0.42819 F2100.00000
G1 Z0.800 F10800.000
G1 X112.090 Y113.932
G1 Z0.200
G1 E0.80000 F2100.00000
G1 F1200
G1 X112.060 Y113.871 E0.00212
G1 X112.040 Y113.574 E0.00933
G1 X112.052 Y113.114 E0.01444
G1 X112.246 Y113.307 E0.00858
G1 X112.346 Y113.454 E0.00558
G1 X112.399 Y113.594 E0.00469
G1 X112.409 Y113.725 E0.00412
G1 X112.377 Y113.854 E0.00416
G1 X112.291 Y113.997 E0.00523
G1 X112.188 Y113.995 E0.00324
G1 X112.135 Y113.971 E0.00182
G1 X112.112 Y113.867 F10800.000
G1 F8640
G1 X112.060 Y113.871 E-0.02888
G1 X112.040 Y113.574 E-0.06868
G1 X112.052 Y113.114 E-0.10632
G1 X112.246 Y113.307 E-0.06320
G1 X112.346 Y113.454 E-0.04106
G1 X112.399 Y113.594 E-0.03456
G1 X112.409 Y113.725 E-0.03035
G1 X112.377 Y113.854 E-0.03062
G1 X112.291 Y113.997 E-0.03850
G1 X112.188 Y113.995 E-0.02384
G1 X112.135 Y113.971 E-0.01342
G1 E-0.32058 F2100.00000
G1 Z0.800 F10800.000
G1 X109.041 Y107.066
G1 Z0.200
G1 E0.80000 F2100.00000
G1 F1200
G1 X109.004 Y106.831 E0.00745
G1 X109.008 Y106.639 E0.00602
G1 X109.056 Y106.470 E0.00549
G1 X109.122 Y106.381 E0.00349
G1 X109.243 Y106.317 E0.00429
G1 X109.364 Y106.315 E0.00382
G1 X109.432 Y106.350 E0.00237
G1 X109.480 Y106.417 E0.00260
G1 X109.503 Y106.580 E0.00516
G1 X109.487 Y106.661 E0.00260
G1 X109.462 Y106.708 E0.00166
G1 X109.087 Y107.027 E0.01542
G1 X109.082 Y106.831 F10800.000
G1 F8640
G1 X109.004 Y106.831 E-0.04911
G1 X109.008 Y106.639 E-0.04432
G1 X109.056 Y106.470 E-0.04042
G1 X109.122 Y106.381 E-0.02568
G1 X109.243 Y106.317 E-0.03159
G1 X109.364 Y106.315 E-0.02810
G1 X109.432 Y106.350 E-0.01745
G1 X109.480 Y106.417 E-0.01918
G1 X109.503 Y106.580 E-0.03798
G1 X109.487 Y106.661 E-0.01917
G1 X109.462 Y106.708 E-0.01221
G1 X109.087 Y107.027 E-0.11359
G1 E-0.36120 F2100.00000
G1 Z0.800 F10800.000
G1 X114.007 Y105.710
G1 Z0.200
G1 E0.80000 F2100.00000
G1 F1200
G1 X113.997 Y105.568 E0.00445
G1 X114.027 Y105.431 E0.00438
G1 X114.198 Y105.421 E0.00538
G1 X114.256 Y105.588 E0.00555
G1 X114.256 Y105.723 E0.00424
G1 X114.221 Y105.849 E0.00409
G1 X114.052 Y105.852 E0.00530
G1 X114.025 Y105.767 E0.00281
G1 X114.095 Y105.598 F10800.000
G1 X114.341 Y106.105
G1 F1200
G1 X114.058 Y106.215 E0.00768
G1 X114.050 Y106.234 E0.00052
G1 X113.907 Y106.516 E0.00757
G1 F8640
G1 X114.050 Y106.234 E-0.07311
G1 E-0.72689 F2100.00000
G1 Z0.800 F10800.000
G1 X107.585 Y104.350
G1 Z0.200
G1 E0.80000 F2100.00000
G1 F1200
G1 X107.480 Y104.436 E0.00426
G1 X107.247 Y104.488 E0.00748
G1 X106.541 Y104.453 E0.02216
G1 X106.881 Y104.108 E0.01519
G1 X107.126 Y103.934 E0.00943
G1 X107.216 Y103.907 E0.00294
G1 X107.404 Y103.950 E0.00604
G1 X107.478 Y104.013 E0.00304
G1 X107.548 Y104.107 E0.00367
G1 X107.587 Y104.204 E0.00330
G1 X107.597 Y104.291 E0.00273
G1 X107.449 Y104.348 F10800.000
G1 F8640
G1 X107.480 Y104.436 E-0.04299
G1 X107.247 Y104.488 E-0.05506
G1 X106.541 Y104.453 E-0.16316
G1 X106.881 Y104.108 E-0.11183
G1 X107.126 Y103.934 E-0.06946
G1 X107.216 Y103.907 E-0.02166
G1 X107.404 Y103.950 E-0.04449
G1 X107.478 Y104.013 E-0.02237
G1 X107.548 Y104.107 E-0.02706
G1 X107.587 Y104.204 E-0.02427
G1 X107.597 Y104.291 E-0.02008
G1 E-0.19757 F2100.00000
G1 Z0.800 F10800.000
G1 X108.941 Y101.395
G1 Z0.200
G1 E0.80000 F2100.00000
G1 F1200
G1 X108.889 Y101.361 E0.00195
G1 X108.723 Y101.148 E0.00847
G1 X108.646 Y101.006 E0.00505
G1 X108.764 Y100.887 E0.00527
G1 X108.922 Y100.971 E0.00561
G1 X109.039 Y101.062 E0.00465
G1 X109.121 Y101.184 E0.00463
G1 X109.135 Y101.286 E0.00323
G1 X109.100 Y101.386 E0.00332
G1 X108.999 Y101.404 E0.00321
G1 X108.922 Y101.336 F10800.000
G1 F8640
G1 X108.889 Y101.361 E-0.02748
G1 X108.723 Y101.148 E-0.06241
G1 X108.646 Y101.006 E-0.03717
G1 X108.764 Y100.887 E-0.03883
G1 X108.922 Y100.971 E-0.04130
G1 X109.039 Y101.062 E-0.03424
G1 X109.121 Y101.184 E-0.03407
G1 X109.135 Y101.286 E-0.02376
G1 X109.100 Y101.386 E-0.02445
G1 X108.999 Y101.404 E-0.02364
G1 E-0.45266 F2100.00000
G1 Z0.800 F10800.000
G1 X110.371 Y91.335
G1 Z0.200
G1 E0.80000 F2100.00000
G1 F1200
G1 X110.699 Y91.000 E0.01469
G1 X110.775 Y90.957 E0.00275
G1 X110.954 Y90.940 E0.00563
G1 X111.114 Y91.023 E0.00565
G1 X111.004 Y91.213 E0.00691
G1 X110.865 Y91.318 E0.00544
G1 X110.626 Y91.368 E0.00768
G1 X110.431 Y91.343 E0.00615
G1 X110.714 Y91.129 F10800.000
G1 F8640
G1 X110.699 Y91.000 E-0.10044
G1 X110.775 Y90.957 E-0.02025
G1 X110.954 Y90.940 E-0.04147
G1 X111.114 Y91.023 E-0.04157
G1 X111.004 Y91.213 E-0.05089
G1 X110.865 Y91.318 E-0.04008
G1 X110.626 Y91.368 E-0.05655
G1 X110.431 Y91.343 E-0.04530
G1 E-0.40345 F2100.00000
G1 Z0.800 F10800.000
G1 X118.478 Y89.325
G1 Z0.200
G1 E0.80000 F2100.00000
G1 F1200
G1 X118.473 Y89.303 E0.00069
G1 X118.623 Y89.219 E0.00541
G1 X118.870 Y89.468 E0.01102
G1 X119.152 Y89.655 E0.01061
G1 X119.460 Y89.793 E0.01056
G1 X119.783 Y89.891 E0.01060
G1 X120.204 Y89.961 E0.01339
G1 X120.183 Y90.172 E0.00665
G1 X119.680 Y90.154 E0.01577
G1 X119.251 Y90.093 E0.01360
G1 X118.940 Y89.965 E0.01052
G1 X118.689 Y89.753 E0.01031
G1 X118.515 Y89.474 E0.01031
G1 X118.492 Y89.383 E0.00293
G1 X118.493 Y89.308 F10800.000
G1 X118.224 Y89.147
G1 F1200
G1 X118.447 Y88.855 E0.01005
G1 X118.441 Y88.758 E0.00265
G1 X118.495 Y88.369 E0.01076
G1 F8640
G1 X118.441 Y88.758 E-0.09078
G1 X118.447 Y88.855 E-0.02232
G1 X118.224 Y89.147 E-0.08477
G1 E-0.60213 F2100.00000
G1 Z0.800 F10800.000
G1 X120.404 Y90.075
G1 Z0.200
G1 E0.80000 F2100.00000
G1 F1200
G1 X120.965 Y90.071 E0.02458
G1 X121.936 Y90.018 E0.04364
G1 F8640
G1 X120.965 Y90.071 E-0.22455
G1 E-0.57545 F2100.00000
G1 Z0.800 F10800.000
G1 X123.431 Y90.287
G1 Z0.200
G1 E0.80000 F2100.00000
G1 F1200
G1 X122.992 Y90.022 E0.01786
G1 X122.770 Y89.913 E0.00767
G1 X122.547 Y89.803 E0.00711
G1 F8640
G1 X122.770 Y89.913 E-0.05727
G1 E-0.74273 F2100.00000
G1 Z0.800 F10800.000
G1 X108.947 Y86.896
G1 Z0.200
G1 E0.80000 F2100.00000
G1 F1200
G1 X108.881 Y87.023 E0.00451
G1 X108.750 Y87.041 E0.00414
G1 X108.603 Y87.017 E0.00467
G1 X108.414 Y86.947 E0.00633
G1 X108.057 Y86.739 E0.01294
G1 X108.333 Y86.635 E0.00924
G1 X108.616 Y86.588 E0.00901
G1 X108.690 Y86.592 E0.00231
G1 X108.795 Y86.631 E0.00352
G1 X108.885 Y86.698 E0.00351
G1 X108.935 Y86.769 E0.00272
G1 X108.942 Y86.836 E0.00212
G1 X108.810 Y86.939 F10800.000
G1 F8640
G1 X108.881 Y87.023 E-0.04548
G1 X108.750 Y87.041 E-0.03048
G1 X108.603 Y87.017 E-0.03439
G1 X108.414 Y86.947 E-0.04662
G1 X108.057 Y86.739 E-0.09532
G1 X108.333 Y86.635 E-0.06807
G1 X108.616 Y86.588 E-0.06632
G1 X108.690 Y86.592 E-0.01702
G1 X108.795 Y86.631 E-0.02593
G1 X108.885 Y86.698 E-0.02588
G1 X108.935 Y86.769 E-0.02000
G1 X108.942 Y86.836 E-0.01560
G1 E-0.30889 F2100.00000
G1 Z0.800 F10800.000
G1 X113.742 Y84.894
G1 Z0.200
G1 E0.80000 F2100.00000
G1 F1200
G1 X113.778 Y84.801 E0.00314
G1 X113.987 Y84.567 E0.00984
G1 X114.146 Y84.656 E0.00570
G1 X114.033 Y84.911 E0.00875
G1 X113.951 Y84.989 E0.00354
G1 X113.876 Y85.007 E0.00241
G1 X113.803 Y84.980 E0.00244
G1 X113.777 Y84.943 E0.00142
G1 X113.826 Y84.840 F10800.000
G1 F8640
G1 X113.778 Y84.801 E-0.03278
G1 X113.987 Y84.567 E-0.07245
G1 X114.146 Y84.656 E-0.04199
G1 X114.033 Y84.911 E-0.06443
G1 X113.951 Y84.989 E-0.02604
G1 X113.876 Y85.007 E-0.01771
G1 X113.803 Y84.980 E-0.01800
G1 X113.777 Y84.943 E-0.01047
G1 E-0.51611 F2100.00000
G1 Z0.800 F10800.000
G1 X122.945 Y84.106
G1 Z0.200
G1 E0.80000 F2100.00000
G1 F1200
G1 X123.223 Y84.063 E0.00882
G1 X123.505 Y83.899 E0.01022
G1 X123.712 Y83.734 E0.00832
G1 X123.934 Y83.899 E0.00868
G1 X124.237 Y84.053 E0.01067
G1 X124.452 Y84.069 E0.00676
G1 X124.613 Y83.987 E0.00568
G1 X124.728 Y84.136 E0.00590
G1 X124.592 Y84.288 E0.00641
G1 X124.736 Y84.584 E0.01033
G1 X124.949 Y84.644 E0.00694
