; generated by Slic3r Prusa Edition 1.41.0+ on 2018-12-12 at 01:32:33

; 

; external perimeters extrusion width = 0.45mm
; perimeters extrusion width = 0.45mm
; infill extrusion width = 0.45mm
; solid infill extrusion width = 0.45mm
; top infill extrusion width = 0.40mm
; first layer extrusion width = 0.42mm

; external perimeters extrusion width = 0.45mm
; perimeters extrusion width = 0.45mm
; infill extrusion width = 0.45mm
; solid infill extrusion width = 0.45mm
; top infill extrusion width = 0.40mm
; first layer extrusion width = 0.42mm

; external perimeters extrusion width = 0.45mm
; perimeters extrusion width = 0.45mm
; infill extrusion width = 0.45mm
; solid infill extrusion width = 0.45mm
; top infill extrusion width = 0.40mm
; first layer extrusion width = 0.42mm

; external perimeters extrusion width = 0.45mm
; perimeters extrusion width = 0.45mm
; infill extrusion width = 0.45mm
; solid infill extrusion width = 0.45mm
; top infill extrusion width = 0.40mm
; first layer extrusion width = 0.42mm

; external perimeters extrusion width = 0.45mm
; perimeters extrusion width = 0.45mm
; infill extrusion width = 0.45mm
; solid infill extrusion width = 0.45mm
; top infill extrusion width = 0.40mm
; first layer extrusion width = 0.42mm

M201 X1000 Y1000 Z1000 E5000 ; sets maximum accelerations, mm/sec^2
M203 X200 Y200 Z12 E120 ; sets maximum feedrates, mm/sec
M204 P1250 R1250 T1250 ; sets acceleration (P, T) and retract acceleration (R), mm/sec^2
M205 X8.00 Y8.00 Z0.40 E1.50 ; sets the jerk limits, mm/sec
M205 S0 T0 ; sets the minimum extruding and travel feed rate, mm/sec
M107
M115 U3.4.1 ; tell printer latest fw version
M83  ; extruder relative mode
M104 S215 ; set extruder temp
M140 S60 ; set bed temp
M190 S60 ; wait for bed temp
M109 S215 ; wait for extruder temp
G28 W ; home all without mesh bed level
G80 ; mesh bed leveling
G1 Y-3.0 F1000.0 ; go outside print area
G92 E0.0
G1 X60.0 E9.0  F1000.0 ; intro line
M73 Q0 S24
M73 P0 R24
G1 X100.0 E12.5  F1000.0 ; intro line
G92 E0.0
M221 S95
M900 K30; Filament gcode
G21 ; set units to millimeters
G90 ; use absolute coordinates
M83 ; use relative distances for extrusion
T0
M900 K30; Filament gcode
;BEFORE_LAYER_CHANGE
G92 E0.0
;0.2


G1 E-0.80000 F2100.00000
G1 Z0.600 F10800.000
;AFTER_LAYER_CHANGE
;0.2
G1 X147.487 Y130.819
G1 Z0.200
G1 E0.80000 F2100.00000
M204 S1000
G1 F1200
G1 X147.171 Y131.372 E0.01998
G1 X146.706 Y131.814 E0.02010
G1 X146.137 Y132.100 E0.01998
G1 X145.509 Y132.210 E0.01998
G1 X104.544 Y132.211 E1.28442
G1 X103.755 Y132.061 E0.02518
G1 X103.210 Y131.752 E0.01964
G1 X102.775 Y131.301 E0.01964
G1 X102.486 Y130.745 E0.01964
G1 X102.366 Y130.127 E0.01976
G1 X102.363 Y103.380 E0.83863
G1 X102.423 Y101.540 E0.05772
G1 X102.578 Y99.884 E0.05216
G1 X102.834 Y98.257 E0.05164
G1 X103.200 Y96.617 E0.05268
G1 X104.116 Y93.782 E0.09343
G1 X105.332 Y91.152 E0.09083
G1 X106.009 Y89.969 E0.04274
G1 X107.430 Y87.887 E0.07901
G1 X108.225 Y86.892 E0.03994
G1 X109.747 Y85.234 E0.07057
G1 X112.196 Y83.068 E0.10250
G1 X114.902 Y81.201 E0.10311
G1 X116.698 Y80.198 E0.06448
G1 X118.521 Y79.347 E0.06308
G1 X120.253 Y78.691 E0.05807
G1 X121.937 Y78.203 E0.05497
G1 X123.519 Y77.899 E0.05052
G1 X125.004 Y77.789 E0.04668
G1 X126.479 Y77.896 E0.04637
G1 X128.062 Y78.200 E0.05055
G1 X129.744 Y78.687 E0.05490
G1 X131.481 Y79.345 E0.05823
G1 X133.303 Y80.195 E0.06305
G1 X135.097 Y81.197 E0.06442
G1 X137.802 Y83.064 E0.10307
G1 X140.253 Y85.232 E0.10258
G1 X141.772 Y86.887 E0.07045
G1 X142.569 Y87.883 E0.03999
G1 X143.990 Y89.965 E0.07902
G1 X144.667 Y91.147 E0.04271
G1 X145.860 Y93.722 E0.08898
G1 X146.406 Y95.254 E0.05100
G1 X147.152 Y98.181 E0.09472
G1 X147.422 Y99.885 E0.05407
G1 X147.584 Y101.641 E0.05529
G1 X147.637 Y130.030 E0.89012
G1 X147.498 Y130.760 E0.02330
; PURGING FINISHED
G1 F8640
G1 X147.171 Y131.372 E-0.16033
G1 X146.706 Y131.814 E-0.14799
G1 X146.137 Y132.100 E-0.14716
G1 X145.509 Y132.210 E-0.14716
G1 X144.827 Y132.210 E-0.15736
G1 E-0.04000 F2100.00000
G1 Z0.800 F10800.000
G1 X125.370 Y127.041
G1 Z0.200
G1 E0.80000 F2100.00000
G1 F1200
G1 X125.132 Y127.137 E0.00804
G1 X124.890 Y127.392 E0.01103
G1 X124.666 Y127.785 E0.01418
G1 X124.459 Y127.414 E0.01334
G1 X124.163 Y127.133 E0.01281
G1 X123.924 Y127.041 E0.00803
G1 X124.318 Y126.850 E0.01375
G1 X124.711 Y126.354 E0.01984
G1 X124.896 Y126.359 E0.00579
G1 X125.336 Y126.992 E0.02418
G1 F8640
G1 X125.132 Y127.137 E-0.05767
G1 X124.890 Y127.392 E-0.08126
G1 X124.666 Y127.785 E-0.10446
G1 X124.459 Y127.414 E-0.09822
G1 X124.163 Y127.133 E-0.09430
G1 X123.924 Y127.041 E-0.05911
G1 X124.318 Y126.850 E-0.10124
G1 X124.711 Y126.354 E-0.14611
G1 X124.787 Y126.356 E-0.01763
G1 E-0.04000 F2100.00000
G1 Z0.800 F10800.000
G1 X124.233 Y126.349
G1 Z0.200
G1 E0.80000 F2100.00000
G1 F1200
G1 X124.183 Y126.250 E0.00349
G1 X124.229 Y126.165 E0.00303
G1 X124.173 Y126.134 E0.00202
G1 X124.220 Y125.962 E0.00557
G1 X124.981 Y125.984 E0.02388
G1 X125.080 Y125.964 E0.00317
G1 X125.856 Y127.079 E0.04260
G1 X125.835 Y127.215 E0.00431
G1 X125.764 Y127.328 E0.00417
G1 X125.548 Y127.377 E0.00697
G1 X125.349 Y127.456 E0.00671
G1 X125.195 Y127.618 E0.00700
G1 X124.811 Y128.294 E0.02438
G1 X124.726 Y128.370 E0.00358
G1 X124.583 Y128.410 E0.00465
G1 X124.158 Y127.648 E0.02736
G1 X123.958 Y127.458 E0.00865
G1 X123.594 Y127.319 E0.01223
G1 X123.549 Y127.263 E0.00224
G1 X123.504 Y127.080 E0.00590
G1 X123.528 Y126.937 E0.00456
G1 X123.583 Y126.843 E0.00342
G1 X123.812 Y126.677 E0.00887
G1 X124.076 Y126.548 E0.00920
G1 X124.196 Y126.397 E0.00606
G1 X124.329 Y126.293 F10800.000
G1 F8640
G1 X124.183 Y126.250 E-0.03399
G1 X124.229 Y126.165 E-0.02228
G1 X124.173 Y126.134 E-0.01487
G1 X124.220 Y125.962 E-0.04099
G1 X124.981 Y125.984 E-0.17588
G1 X125.080 Y125.964 E-0.02333
G1 X125.856 Y127.079 E-0.31369
G1 X125.835 Y127.215 E-0.03172
G1 X125.764 Y127.328 E-0.03073
G1 X125.548 Y127.377 E-0.05132
G1 X125.462 Y127.411 E-0.02120
G1 E-0.04000 F2100.00000
G1 Z0.800 F10800.000
G1 X124.855 Y125.243
G1 Z0.200
G1 E0.80000 F2100.00000
G1 F1200
G1 X123.071 Y125.214 E0.08846
G1 X122.522 Y125.215 E0.02568
G1 X121.972 Y125.217 E0.02454
G1 F8640
G1 X122.522 Y125.215 E-0.12695
G1 E-0.67305 F2100.00000
G1 Z0.800 F10800.000
G1 X123.073 Y125.930
G1 Z0.200
G1 E0.80000 F2100.00000
G1 F1200
G1 X123.358 Y125.938 E0.00895
G1 X123.402 Y126.102 E0.00531
G1 X123.205 Y126.220 E0.00719
G1 X123.020 Y126.089 E0.00712
G1 X123.054 Y125.987 E0.00338
G1 X123.336 Y126.041 F10800.000
G1 X122.649 Y126.852
G1 F1200
G1 X122.634 Y126.963 E0.00350
G1 X122.561 Y127.103 E0.00495
G1 X122.428 Y127.202 E0.00522
G1 X122.161 Y127.251 E0.00849
G1 X121.986 Y127.251 E0.00551
G1 X121.911 Y127.321 E0.00322
G1 X121.764 Y127.232 E0.00540
G1 X121.953 Y126.567 E0.02166
G1 X122.049 Y126.087 E0.01535
G1 X122.612 Y126.805 E0.02861
G1 X122.573 Y126.934 F10800.000
G1 F8640
G1 X122.634 Y126.963 E-0.03679
G1 X122.561 Y127.103 E-0.03644
G1 X122.428 Y127.202 E-0.03841
G1 X122.161 Y127.251 E-0.06256
G1 X121.986 Y127.251 E-0.04055
G1 X121.911 Y127.321 E-0.02369
G1 X121.764 Y127.232 E-0.03974
G1 X121.953 Y126.567 E-0.15953
G1 X122.049 Y126.087 E-0.11306
G1 X122.608 Y126.800 E-0.20924
G1 E-0.04000 F2100.00000
G1 Z0.800 F10800.000
G1 X125.272 Y125.864
G1 Z0.200
G1 E0.80000 F2100.00000
G1 F1200
G1 X125.406 Y125.715 E0.00631
G1 X125.339 Y125.569 E0.00504
G1 X125.369 Y125.446 E0.00397
G1 X125.051 Y125.356 E0.01037
G1 X125.080 Y125.159 E0.00625
G1 X126.957 Y125.200 E0.05886
G1 X127.055 Y125.894 E0.02198
G1 X126.777 Y125.937 E0.00882
G1 X126.495 Y126.101 E0.01022
G1 X126.288 Y126.266 E0.00831
G1 X126.074 Y126.105 E0.00841
G1 X125.763 Y125.947 E0.01094
G1 X125.548 Y125.931 E0.00677
G1 X125.387 Y126.013 E0.00568
G1 X125.308 Y125.912 E0.00402
G1 X125.450 Y125.771 F10800.000
G1 F8640
G1 X125.406 Y125.715 E-0.05083
G1 X125.339 Y125.569 E-0.03710
G1 X125.369 Y125.446 E-0.02922
G1 X125.051 Y125.356 E-0.07640
G1 X125.080 Y125.159 E-0.04601
G1 X126.957 Y125.200 E-0.43345
G1 X127.010 Y125.573 E-0.08699
G1 E-0.04000 F2100.00000
G1 Z0.800 F10800.000
G1 X126.652 Y127.094
G1 Z0.200
G1 E0.80000 F2100.00000
G1 F1200
G1 X127.140 Y126.393 E0.02676
G1 X127.431 Y127.449 E0.03435
G1 X127.130 Y127.268 E0.01102
G1 X126.849 Y127.238 E0.00885
G1 X126.774 Y127.148 E0.00368
G1 X126.707 Y127.118 E0.00228
G1 X127.016 Y126.926 F10800.000
G1 X127.434 Y127.769
G1 F1200
G1 X127.727 Y127.945 E0.00417
G1 F8640
G1 X127.434 Y127.769 E-0.07903
G1 E-0.72097 F2100.00000
G1 Z0.800 F10800.000
G1 X139.128 Y126.191
G1 Z0.200
G1 E0.80000 F2100.00000
G1 F1200
G1 X139.146 Y126.078 E0.00360
G1 X139.235 Y125.977 E0.00421
G1 X139.386 Y125.935 E0.00492
G1 X139.733 Y126.508 E0.02101
G1 X139.613 Y126.633 E0.00545
G1 X139.467 Y126.552 E0.00524
G1 X139.190 Y126.309 E0.01154
G1 X139.146 Y126.248 E0.00235
G1 X139.218 Y126.120 F10800.000
G1 F8640
G1 X139.146 Y126.078 E-0.03935
G1 X139.235 Y125.977 E-0.03103
G1 X139.386 Y125.935 E-0.03627
G1 X139.733 Y126.508 E-0.15475
G1 X139.613 Y126.633 E-0.04017
G1 X139.467 Y126.552 E-0.03859
G1 X139.190 Y126.309 E-0.08498
G1 X139.146 Y126.248 E-0.01730
G1 E-0.35755 F2100.00000
G1 Z0.800 F10800.000
G1 X136.251 Y125.125
G1 Z0.200
G1 E0.80000 F2100.00000
G1 F1200
G1 X136.223 Y125.197 E0.00244
G1 X136.013 Y125.433 E0.00988
G1 X135.855 Y125.344 E0.00571
G1 X135.967 Y125.089 E0.00873
G1 X136.049 Y125.011 E0.00354
G1 X136.124 Y124.993 E0.00241
G1 X136.197 Y125.020 E0.00244
G1 X136.235 Y125.073 E0.00205
G1 X136.184 Y125.164 F10800.000
G1 F8640
G1 X136.223 Y125.197 E-0.02869
G1 X136.013 Y125.433 E-0.07277
G1 X135.855 Y125.344 E-0.04205
G1 X135.967 Y125.089 E-0.06431
G1 X136.049 Y125.011 E-0.02604
G1 X136.124 Y124.993 E-0.01771
G1 X136.197 Y125.020 E-0.01800
G1 X136.235 Y125.073 E-0.01509
G1 E-0.51533 F2100.00000
G1 Z0.800 F10800.000
G1 X141.065 Y123.231
G1 Z0.200
G1 E0.80000 F2100.00000
G1 F1200
G1 X141.053 Y123.104 E0.00400
G1 X141.119 Y122.977 E0.00451
G1 X141.250 Y122.959 E0.00414
G1 X141.589 Y123.055 E0.01106
G1 X141.943 Y123.261 E0.01282
G1 X141.664 Y123.367 E0.00936
G1 X141.427 Y123.414 E0.00757
G1 X141.310 Y123.408 E0.00366
G1 X141.205 Y123.369 E0.00352
G1 X141.100 Y123.280 E0.00432
G1 X141.144 Y123.131 F10800.000
G1 F8640
G1 X141.053 Y123.104 E-0.04200
G1 X141.119 Y122.977 E-0.03322
G1 X141.250 Y122.959 E-0.03048
G1 X141.589 Y123.055 E-0.08146
G1 X141.943 Y123.261 E-0.09445
G1 X141.664 Y123.367 E-0.06894
G1 X141.427 Y123.414 E-0.05577
G1 X141.310 Y123.408 E-0.02699
G1 X141.205 Y123.369 E-0.02593
G1 X141.100 Y123.280 E-0.03181
G1 E-0.30896 F2100.00000
G1 Z0.800 F10800.000
G1 X131.527 Y120.697
G1 Z0.200
G1 E0.80000 F2100.00000
G1 F1200
G1 X131.377 Y120.781 E0.00541
G1 X131.130 Y120.531 E0.01102
G1 X130.848 Y120.345 E0.01061
G1 X130.540 Y120.207 E0.01056
G1 X130.217 Y120.109 E0.01059
G1 X129.828 Y120.044 E0.01236
G1 X129.841 Y119.840 E0.00640
G1 X130.320 Y119.846 E0.01502
G1 X130.749 Y119.907 E0.01360
G1 X131.060 Y120.035 E0.01052
G1 X131.311 Y120.247 E0.01031
G1 X131.485 Y120.526 E0.01031
G1 X131.513 Y120.639 E0.00362
G1 X131.355 Y120.691 F10800.000
G1 F8640
G1 X131.377 Y120.781 E-0.04553
G1 X131.130 Y120.531 E-0.08113
G1 X130.848 Y120.345 E-0.07812
G1 X130.540 Y120.207 E-0.07775
G1 X130.217 Y120.109 E-0.07802
G1 X129.828 Y120.044 E-0.09100
G1 X129.841 Y119.840 E-0.04712
G1 X130.320 Y119.846 E-0.11060
G1 X130.749 Y119.907 E-0.10018
G1 X130.952 Y119.991 E-0.05054
G1 E-0.04000 F2100.00000
G1 Z0.800 F10800.000
G1 X129.625 Y119.928
G1 Z0.200
G1 E0.80000 F2100.00000
G1 F1200
G1 X129.065 Y119.927 E0.02575
G1 X128.064 Y119.982 E0.04405
G1 F8640
G1 X129.065 Y119.927 E-0.23160
G1 E-0.56840 F2100.00000
G1 Z0.800 F10800.000
G1 X131.559 Y121.243
G1 Z0.200
G1 E0.80000 F2100.00000
G1 F1200
G1 X131.509 Y121.627 E0.01057
G1 X131.465 Y121.679 F10800.000
G1 F1200
G1 X131.686 Y120.849 E0.01274
G1 X131.776 Y120.854 F10800.000
G1 F1200
G1 X131.553 Y121.145 E0.01036
G1 X131.559 Y121.243 E0.00275
G1 F8640
G1 X131.553 Y121.145 E-0.02253
G1 X131.776 Y120.854 E-0.08474
G1 E-0.69273 F2100.00000
G1 Z0.800 F10800.000
G1 X127.453 Y120.197
G1 Z0.200
G1 E0.80000 F2100.00000
G1 F1200
G1 X127.008 Y119.978 E0.01482
G1 X126.569 Y119.713 E0.01530
G1 F8640
G1 X127.008 Y119.978 E-0.11827
G1 X127.453 Y120.197 E-0.11454
G1 E-0.56719 F2100.00000
G1 Z0.800 F10800.000
G1 X138.886 Y118.977
G1 Z0.200
G1 E0.80000 F2100.00000
G1 F1200
G1 X138.996 Y118.787 E0.00691
G1 X139.135 Y118.682 E0.00544
G1 X139.374 Y118.632 E0.00768
G1 X139.629 Y118.665 E0.00803
G1 X139.301 Y119.000 E0.01469
G1 X139.219 Y119.046 E0.00296
G1 X139.128 Y119.066 E0.00292
G1 X139.046 Y119.060 E0.00258
G1 X138.939 Y119.005 E0.00376
G1 X139.070 Y118.857 F10800.000
G1 F8640
G1 X138.996 Y118.787 E-0.05209
G1 X139.135 Y118.682 E-0.04008
G1 X139.374 Y118.632 E-0.05655
G1 X139.629 Y118.665 E-0.05915
G1 X139.301 Y119.000 E-0.10818
G1 X139.219 Y119.046 E-0.02180
G1 X139.128 Y119.066 E-0.02153
G1 X139.046 Y119.060 E-0.01897
G1 X138.939 Y119.005 E-0.02772
G1 E-0.39393 F2100.00000
G1 Z0.800 F10800.000
G1 X141.236 Y109.113
G1 Z0.200
G1 E0.80000 F2100.00000
G1 F1200
G1 X141.078 Y109.029 E0.00561
G1 X140.961 Y108.938 E0.00465
G1 X140.907 Y108.869 E0.00275
G1 X140.879 Y108.816 E0.00190
G1 X140.865 Y108.714 E0.00323
G1 X140.900 Y108.614 E0.00332
G1 X141.020 Y108.592 E0.00383
G1 X141.115 Y108.645 E0.00340
G1 X141.278 Y108.853 E0.00827
G1 X141.354 Y108.994 E0.00504
G1 X141.278 Y109.071 E0.00339
G1 X141.125 Y108.973 F10800.000
G1 F8640
G1 X141.078 Y109.029 E-0.04719
G1 X140.961 Y108.938 E-0.03424
G1 X140.907 Y108.869 E-0.02026
G1 X140.879 Y108.816 E-0.01397
G1 X140.865 Y108.714 E-0.02376
G1 X140.900 Y108.614 E-0.02445
G1 X141.020 Y108.592 E-0.02820
G1 X141.115 Y108.645 E-0.02504
G1 X141.278 Y108.853 E-0.06092
G1 X141.354 Y108.994 E-0.03712
G1 X141.278 Y109.071 E-0.02498
G1 E-0.45986 F2100.00000
G1 Z0.800 F10800.000
G1 X142.602 Y106.055
G1 Z0.200
G1 E0.80000 F2100.00000
G1 F1200
G1 X142.522 Y105.987 E0.00327
G1 X142.452 Y105.893 E0.00367
G1 X142.413 Y105.796 E0.00330
G1 X142.415 Y105.650 E0.00455
G1 X142.520 Y105.564 E0.00426
G1 X142.753 Y105.512 E0.00748
G1 X143.459 Y105.547 E0.02216
G1 X143.119 Y105.892 E0.01519
G1 X142.874 Y106.066 E0.00943
G1 X142.784 Y106.093 E0.00294
G1 X142.658 Y106.076 E0.00399
G1 X142.597 Y105.950 F10800.000
G1 F8640
G1 X142.522 Y105.987 E-0.03747
G1 X142.452 Y105.893 E-0.02706
G1 X142.413 Y105.796 E-0.02427
G1 X142.415 Y105.650 E-0.03350
G1 X142.520 Y105.564 E-0.03135
G1 X142.753 Y105.512 E-0.05506
G1 X143.459 Y105.547 E-0.16316
G1 X143.119 Y105.892 E-0.11183
G1 X142.874 Y106.066 E-0.06946
G1 X142.784 Y106.093 E-0.02166
G1 X142.658 Y106.076 E-0.02938
G1 E-0.19579 F2100.00000
G1 Z0.800 F10800.000
G1 X135.973 Y104.569
G1 Z0.200
G1 E0.80000 F2100.00000
G1 F1200
G1 X135.802 Y104.579 E0.00538
G1 X135.744 Y104.412 E0.00555
G1 X135.744 Y104.277 E0.00424
G1 X135.779 Y104.151 E0.00409
G1 X135.948 Y104.148 E0.00530
G1 X135.993 Y104.290 E0.00469
G1 X136.003 Y104.432 E0.00445
G1 X135.986 Y104.510 E0.00250
G1 X135.823 Y104.485 F10800.000
G1 X135.659 Y103.895
G1 F1200
G1 X135.942 Y103.785 E0.00724
G1 X136.093 Y103.484 E0.00806
G1 F8640
G1 X135.942 Y103.785 E-0.07785
G1 X135.659 Y103.895 E-0.06991
G1 E-0.65225 F2100.00000
G1 Z0.800 F10800.000
G1 X140.497 Y103.420
G1 Z0.200
G1 E0.80000 F2100.00000
G1 F1200
G1 X140.538 Y103.292 E0.00421
G1 X140.959 Y102.934 E0.01731
G1 X140.996 Y103.169 E0.00745
G1 X140.992 Y103.361 E0.00602
G1 X140.944 Y103.530 E0.00549
G1 X140.874 Y103.625 E0.00373
G1 X140.792 Y103.676 E0.00300
G1 X140.705 Y103.694 E0.00280
G1 X140.635 Y103.685 E0.00220
G1 X140.569 Y103.651 E0.00236
G1 X140.520 Y103.583 E0.00261
G1 X140.505 Y103.480 E0.00328
G1 X140.620 Y103.366 F10800.000
G1 F8640
G1 X140.538 Y103.292 E-0.04390
G1 X140.959 Y102.934 E-0.12745
G1 X140.996 Y103.169 E-0.05488
G1 X140.992 Y103.361 E-0.04432
G1 X140.944 Y103.530 E-0.04042
G1 X140.874 Y103.625 E-0.02745
G1 X140.792 Y103.676 E-0.02210
G1 X140.705 Y103.694 E-0.02059
G1 X140.635 Y103.685 E-0.01620
G1 X140.569 Y103.651 E-0.01737
G1 X140.520 Y103.583 E-0.01925
G1 X140.505 Y103.480 E-0.02412
G1 E-0.34195 F2100.00000
G1 Z0.800 F10800.000
G1 X137.948 Y96.886
G1 Z0.200
G1 E0.80000 F2100.00000
G1 F1200
G1 X137.754 Y96.693 E0.00858
