; generated by Slic3r Prusa Edition 1.41.0+ on 2018-12-12 at 01:37:58

; 

; external perimeters extrusion width = 0.45mm
; perimeters extrusion width = 0.45mm
; infill extrusion width = 0.45mm
; solid infill extrusion width = 0.45mm
; top infill extrusion width = 0.40mm
; first layer extrusion width = 0.42mm

; external perimeters extrusion width = 0.45mm
; perimeters extrusion width = 0.45mm
; infill extrusion width = 0.45mm
; solid infill extrusion width = 0.45mm
; top infill extrusion width = 0.40mm
; first layer extrusion width = 0.42mm

; external perimeters extrusion width = 0.45mm
; perimeters extrusion width = 0.45mm
; infill extrusion width = 0.45mm
; solid infill extrusion width = 0.45mm
; top infill extrusion width = 0.40mm
; first layer extrusion width = 0.42mm

; external perimeters extrusion width = 0.45mm
; perimeters extrusion width = 0.45mm
; infill extrusion width = 0.45mm
; solid infill extrusion width = 0.45mm
; top infill extrusion width = 0.40mm
; first layer extrusion width = 0.42mm

M201 X1000 Y1000 Z1000 E5000 ; sets maximum accelerations, mm/sec^2
M203 X200 Y200 Z12 E120 ; sets maximum feedrates, mm/sec
M204 P1250 R1250 T1250 ; sets acceleration (P, T) and retract acceleration (R), mm/sec^2
M205 X8.00 Y8.00 Z0.40 E1.50 ; sets the jerk limits, mm/sec
M205 S0 T0 ; sets the minimum extruding and travel feed rate, mm/sec
M107
M115 U3.4.1 ; tell printer latest fw version
M83  ; extruder relative mode
M104 S215 ; set extruder temp
M140 S60 ; set bed temp
M190 S60 ; wait for bed temp
M109 S215 ; wait for extruder temp
G28 W ; home all without mesh bed level
G80 ; mesh bed leveling
G1 Y-3.0 F1000.0 ; go outside print area
G92 E0.0
G1 X60.0 E9.0  F1000.0 ; intro line
M73 Q0 S137
M73 P0 R132
G1 X100.0 E12.5  F1000.0 ; intro line
G92 E0.0
M221 S95
M900 K30; Filament gcode
M900 K30; Filament gcode
M900 K30; Filament gcode
M900 K30; Filament gcode
M900 K30; Filament gcode
G21 ; set units to millimeters
G90 ; use absolute coordinates
M83 ; use relative distances for extrusion
T0
;BEFORE_LAYER_CHANGE
G92 E0.0
;0.2


G1 E-0.80000 F2100.00000
G1 Z0.600 F10800.000
;AFTER_LAYER_CHANGE
;0.2
G1 X188.375 Y180.884
G1 Z0.200
G1 E0.80000 F2100.00000
M204 S1000
G1 F1200
G1 X188.052 Y181.437 E0.02010
G1 X187.579 Y181.875 E0.02021
G1 X186.999 Y182.156 E0.02021
G1 X186.365 Y182.256 E0.02010
G1 X63.651 Y182.256 E3.84761
G1 X62.838 Y182.098 E0.02597
G1 X62.288 Y181.777 E0.01998
G1 X61.852 Y181.307 E0.02010
G1 X61.570 Y180.732 E0.02010
G1 X61.467 Y180.099 E0.02010
G1 X61.467 Y100.192 E2.50543
G1 X61.620 Y95.145 E0.15832
G1 X62.078 Y90.200 E0.15570
G1 X62.820 Y85.489 E0.14953
G1 X63.809 Y81.056 E0.14241
G1 X65.005 Y76.918 E0.13506
G1 X66.434 Y72.918 E0.13316
G1 X68.028 Y69.180 E0.12745
G1 X69.813 Y65.596 E0.12552
G1 X71.713 Y62.269 E0.12012
G1 X73.691 Y59.202 E0.11444
G1 X75.784 Y56.297 E0.11224
G1 X77.977 Y53.551 E0.11020
G1 X80.145 Y51.082 E0.10301
G1 X82.353 Y48.780 E0.10003
G1 X84.571 Y46.653 E0.09633
G1 X86.724 Y44.744 E0.09022
G1 X89.241 Y42.685 E0.10197
G1 X91.789 Y40.776 E0.09982
G1 X94.317 Y39.031 E0.09631
G1 X96.929 Y37.374 E0.09699
G1 X102.085 Y34.490 E0.18524
G1 X107.214 Y32.095 E0.17749
G1 X112.153 Y30.222 E0.16562
G1 X116.826 Y28.865 E0.15258
G1 X121.133 Y28.036 E0.13753
G1 X123.122 Y27.824 E0.06270
G1 X125.004 Y27.744 E0.05907
G1 X126.873 Y27.816 E0.05866
G1 X128.865 Y28.028 E0.06280
G1 X133.173 Y28.857 E0.13755
G1 X137.848 Y30.214 E0.15262
G1 X142.784 Y32.086 E0.16554
G1 X147.912 Y34.481 E0.17746
G1 X153.070 Y37.365 E0.18530
G1 X155.683 Y39.023 E0.09702
G1 X158.211 Y40.767 E0.09631
G1 X160.759 Y42.678 E0.09985
G1 X163.274 Y44.734 E0.10183
G1 X165.428 Y46.643 E0.09027
G1 X167.647 Y48.772 E0.09641
G1 X169.854 Y51.073 E0.09997
G1 X172.023 Y53.543 E0.10308
G1 X174.215 Y56.288 E0.11013
G1 X176.309 Y59.194 E0.11230
G1 X178.286 Y62.261 E0.11440
G1 X180.187 Y65.590 E0.12020
G1 X181.972 Y69.173 E0.12552
G1 X183.558 Y72.892 E0.12677
G1 X184.994 Y76.910 E0.13377
G1 X186.190 Y81.047 E0.13502
G1 X187.179 Y85.483 E0.14252
G1 X187.922 Y90.195 E0.14956
G1 X188.379 Y95.117 E0.15498
G1 X188.533 Y100.191 E0.15916
G1 X188.533 Y180.068 E2.50448
G1 X188.387 Y180.825 E0.02420
; PURGING FINISHED
G1 F8640
G1 X188.052 Y181.437 E-0.16113
G1 X187.579 Y181.875 E-0.14883
G1 X186.999 Y182.156 E-0.14883
G1 X186.365 Y182.256 E-0.14799
G1 X185.702 Y182.256 E-0.15322
G1 E-0.04000 F2100.00000
G1 Z0.800 F10800.000
G1 X131.247 Y167.900
G1 Z0.200
G1 E0.80000 F2100.00000
G1 F1200
G1 X130.946 Y167.760 E0.01039
G1 X130.346 Y167.851 E0.01904
G1 X129.510 Y168.338 E0.03032
G1 X128.865 Y168.853 E0.02590
G1 X128.200 Y168.354 E0.02610
G1 X127.277 Y167.884 E0.03248
G1 X126.652 Y167.836 E0.01965
G1 X125.622 Y168.364 E0.03629
G1 X127.612 Y171.228 E0.10934
G1 X127.547 Y171.661 E0.01373
G1 X127.320 Y172.022 E0.01336
G1 X126.655 Y172.171 E0.02136
G1 X126.071 Y172.404 E0.01972
G1 X125.615 Y172.886 E0.02080
G1 X125.099 Y173.853 E0.03438
G1 X124.471 Y174.906 E0.03842
G1 X124.199 Y175.150 E0.01147
G1 X123.912 Y175.230 E0.00936
G1 X123.754 Y175.203 E0.00501
G1 X123.638 Y175.120 E0.00446
G1 X122.440 Y172.971 E0.07716
G1 X121.850 Y172.412 E0.02547
G1 X120.755 Y171.992 E0.03678
G1 X120.607 Y171.808 E0.00739
G1 X120.467 Y171.242 E0.01829
G1 X120.542 Y170.795 E0.01421
G1 X120.716 Y170.499 E0.01079
G1 X121.413 Y169.993 E0.02701
G1 X122.200 Y169.610 E0.02742
G1 X122.648 Y169.043 E0.02267
G1 X122.501 Y168.749 E0.01032
G1 X122.629 Y168.512 E0.00845
G1 X121.701 Y167.994 E0.03331
G1 X121.748 Y167.823 E0.00556
G1 X124.941 Y167.909 E0.10013
G1 X125.593 Y167.777 E0.02087
G1 X125.806 Y167.539 E0.01002
G1 X126.428 Y167.714 E0.02025
G1 X125.768 Y166.286 E0.04931
G1 X124.960 Y166.058 E0.02634
G1 X116.489 Y165.823 E0.26569
G1 X116.522 Y165.473 E0.01103
G1 X119.211 Y165.387 E0.08436
G1 X124.143 Y165.410 E0.15466
G1 X130.910 Y165.559 E0.21220
G1 X131.054 Y166.794 E0.03899
G1 X131.236 Y167.841 E0.03332
G1 F8640
G1 X130.946 Y167.760 E-0.06952
G1 X130.346 Y167.851 E-0.14019
G1 X129.510 Y168.338 E-0.22328
G1 X128.865 Y168.853 E-0.19074
G1 X128.393 Y168.499 E-0.13627
G1 E-0.04000 F2100.00000
G1 Z0.800 F10800.000
G1 X121.152 Y167.991
G1 Z0.200
G1 E0.80000 F2100.00000
G1 F1200
G1 X120.276 Y168.312 E0.02925
G1 X119.615 Y168.713 E0.02425
G1 X118.776 Y168.120 E0.03220
G1 X118.349 Y167.910 E0.01493
G1 X118.392 Y167.733 E0.00571
G1 X121.122 Y167.806 E0.08560
G1 X121.142 Y167.932 E0.00398
G1 F8640
G1 X120.276 Y168.312 E-0.21844
G1 X119.615 Y168.713 E-0.17856
G1 X118.776 Y168.120 E-0.23713
G1 X118.349 Y167.910 E-0.10991
G1 X118.365 Y167.843 E-0.01595
G1 E-0.04000 F2100.00000
G1 Z0.800 F10800.000
G1 X117.992 Y170.544
G1 Z0.200
G1 E0.80000 F2100.00000
G1 F1200
G1 X117.943 Y170.901 E0.01130
G1 X117.717 Y171.337 E0.01539
G1 X117.300 Y171.646 E0.01627
G1 X116.487 Y171.795 E0.02592
G1 X115.963 Y171.795 E0.01644
G1 X115.503 Y172.256 E0.02040
G1 X115.084 Y172.641 E0.01786
G1 X114.935 Y172.539 E0.00565
G1 X115.194 Y171.880 E0.02220
G1 X115.816 Y169.691 E0.07138
G1 X116.123 Y168.161 E0.04892
G1 X117.955 Y170.497 E0.09308
G1 F8640
G1 X117.943 Y170.901 E-0.09339
G1 X117.717 Y171.337 E-0.11331
G1 X117.300 Y171.646 E-0.11985
G1 X116.487 Y171.795 E-0.19089
G1 X115.963 Y171.795 E-0.12110
G1 X115.591 Y172.167 E-0.12146
G1 E-0.04000 F2100.00000
G1 Z0.800 F10800.000
G1 X116.575 Y167.859
G1 Z0.200
G1 E0.80000 F2100.00000
G1 F1200
G1 X116.143 Y168.060 E0.01493
G1 X116.220 Y167.675 E0.01231
G1 X116.538 Y167.683 E0.00997
G1 X116.562 Y167.800 E0.00373
G1 F8640
G1 X116.143 Y168.060 E-0.11389
G1 X116.220 Y167.675 E-0.09067
G1 X116.538 Y167.683 E-0.07341
G1 X116.562 Y167.800 E-0.02750
G1 E-0.49452 F2100.00000
G1 Z0.800 F10800.000
G1 X129.967 Y171.191
G1 Z0.200
G1 E0.80000 F2100.00000
G1 F1200
G1 X131.436 Y169.081 E0.08062
G1 X132.225 Y171.939 E0.09297
G1 X132.482 Y172.585 E0.02180
G1 X132.317 Y172.684 E0.00605
G1 X131.861 Y172.138 E0.02228
G1 X131.395 Y171.858 E0.01705
G1 X130.886 Y171.764 E0.01624
G1 X130.516 Y171.741 E0.01164
G1 X130.294 Y171.479 E0.01076
G1 X130.012 Y171.353 E0.00969
G1 X129.983 Y171.249 E0.00338
G1 F8640
G1 X131.436 Y169.081 E-0.60265
G1 X131.617 Y169.738 E-0.15735
G1 E-0.04000 F2100.00000
G1 Z0.800 F10800.000
G1 X131.387 Y168.491
G1 Z0.200
G1 E0.80000 F2100.00000
G1 F1200
G1 X131.248 Y168.316 E0.00700
G1 X130.890 Y168.150 E0.01237
G1 X130.474 Y168.213 E0.01321
G1 X129.724 Y168.649 E0.02719
G1 X128.873 Y169.330 E0.03416
G1 X127.999 Y168.675 E0.03425
G1 X127.173 Y168.254 E0.02907
G1 X126.729 Y168.220 E0.01395
G1 X126.177 Y168.503 E0.01944
G1 X128.007 Y171.136 E0.10053
G1 X127.908 Y171.795 E0.02089
G1 X127.556 Y172.356 E0.02076
G1 X126.767 Y172.532 E0.02535
G1 X126.288 Y172.724 E0.01617
G1 X125.924 Y173.108 E0.01661
G1 X125.427 Y174.039 E0.03307
G1 X124.766 Y175.148 E0.04050
G1 X124.385 Y175.489 E0.01603
G1 X123.931 Y175.616 E0.01478
G1 X123.605 Y175.560 E0.01038
G1 X123.350 Y175.378 E0.00982
G1 X122.139 Y173.205 E0.07799
G1 X121.645 Y172.738 E0.02132
G1 X120.525 Y172.308 E0.03762
G1 X120.261 Y171.980 E0.01319
G1 X120.082 Y171.257 E0.02335
G1 X120.181 Y170.664 E0.01884
G1 X120.431 Y170.240 E0.01544
G1 X121.218 Y169.668 E0.03052
G1 X121.957 Y169.309 E0.02576
G1 X122.204 Y168.997 E0.01245
G1 X122.076 Y168.742 E0.00894
G1 X122.121 Y168.660 E0.00293
G1 X121.624 Y168.383 E0.01783
G1 X121.207 Y168.372 E0.01307
G1 X120.440 Y168.653 E0.02562
G1 X119.599 Y169.163 E0.03085
G1 X118.583 Y168.445 E0.03901
G1 X117.703 Y168.013 E0.03073
G1 X117.241 Y167.964 E0.01456
G1 X116.660 Y168.235 E0.02011
G1 X118.387 Y170.437 E0.08776
G1 X118.307 Y171.017 E0.01835
G1 X118.012 Y171.587 E0.02015
G1 X117.455 Y172.002 E0.02176
G1 X116.522 Y172.172 E0.02975
G1 X116.119 Y172.172 E0.01262
G1 X115.764 Y172.528 E0.01575
G1 X114.772 Y173.440 E0.04226
G1 X114.188 Y173.849 E0.02234
G1 X114.056 Y173.745 E0.00527
G1 X114.836 Y171.760 E0.06688
G1 X115.449 Y169.602 E0.07034
G1 X115.913 Y167.289 E0.07396
G1 X124.908 Y167.531 E0.28212
G1 X125.395 Y167.432 E0.01561
G1 X125.682 Y167.112 E0.01347
G1 X125.742 Y167.129 E0.00195
G1 X125.499 Y166.602 E0.01819
G1 X124.902 Y166.434 E0.01943
G1 X116.077 Y166.189 E0.27683
G1 X116.177 Y165.107 E0.03408
G1 X119.206 Y165.010 E0.09502
G1 X124.148 Y165.033 E0.15497
G1 X131.246 Y165.189 E0.22260
G1 X131.427 Y166.740 E0.04895
G1 X131.848 Y169.156 E0.07692
G1 X132.583 Y171.819 E0.08659
G1 X133.103 Y173.123 E0.04404
G1 X133.548 Y173.968 E0.02994
G1 X132.739 Y173.619 E0.02763
G1 X132.366 Y173.331 E0.01478
G1 X131.613 Y172.429 E0.03685
G1 X131.260 Y172.216 E0.01292
G1 X130.840 Y172.139 E0.01336
G1 X130.332 Y172.108 E0.01598
G1 X130.062 Y171.788 E0.01312
G1 X129.696 Y171.625 E0.01257
G1 X129.557 Y171.121 E0.01639
G1 X131.353 Y168.540 E0.09859
G1 X131.541 Y168.329 F10800.000
G1 F8640
G1 X131.248 Y168.316 E-0.05706
G1 X130.890 Y168.150 E-0.09108
G1 X130.474 Y168.213 E-0.09730
G1 X129.724 Y168.649 E-0.20024
G1 X128.873 Y169.330 E-0.25159
G1 X128.656 Y169.167 E-0.06272
G1 E-0.04000 F2100.00000
G1 Z0.800 F10800.000
G1 X167.343 Y168.379
G1 Z0.200
G1 E0.80000 F2100.00000
G1 F1200
G1 X167.400 Y168.211 E0.00555
G1 X167.681 Y167.893 E0.01331
G1 X168.048 Y167.790 E0.01197
G1 X168.150 Y167.815 E0.00329
G1 X168.290 Y167.937 E0.00581
G1 X169.722 Y170.290 E0.08638
G1 X169.201 Y170.149 E0.01693
G1 X168.375 Y169.691 E0.02960
G1 X167.539 Y168.956 E0.03491
G1 X167.403 Y168.770 E0.00722
G1 X167.341 Y168.580 E0.00628
G1 X167.342 Y168.439 E0.00441
G1 F8640
G1 X167.400 Y168.211 E-0.05419
G1 X167.681 Y167.893 E-0.09802
G1 X168.048 Y167.790 E-0.08815
G1 X168.150 Y167.815 E-0.02424
G1 X168.290 Y167.937 E-0.04281
G1 X169.309 Y169.611 E-0.45259
G1 E-0.04000 F2100.00000
G1 Z0.800 F10800.000
G1 X170.433 Y170.743
G1 Z0.200
G1 E0.80000 F2100.00000
G1 F1200
G1 X169.939 Y170.740 E0.01548
G1 X169.058 Y170.501 E0.02862
G1 X168.157 Y170.001 E0.03231
G1 X167.259 Y169.212 E0.03748
G1 X167.062 Y168.944 E0.01043
G1 X166.964 Y168.638 E0.01009
G1 X166.966 Y168.315 E0.01010
G1 X167.067 Y168.019 E0.00983
G1 X167.472 Y167.560 E0.01917
G1 X168.042 Y167.400 E0.01859
G1 X168.329 Y167.471 E0.00925
G1 X168.580 Y167.689 E0.01043
G1 X169.155 Y168.612 E0.03409
G1 X170.402 Y170.691 E0.07602
G1 X170.056 Y170.607 F10800.000
G1 F8640
G1 X169.939 Y170.740 E-0.10748
G1 X169.058 Y170.501 E-0.21074
G1 X168.157 Y170.001 E-0.23798
G1 X167.494 Y169.419 E-0.20381
G1 E-0.04000 F2100.00000
G1 Z0.800 F10800.000
G1 X158.788 Y165.400
G1 Z0.200
G1 E0.80000 F2100.00000
G1 F1200
G1 X158.705 Y165.614 E0.00720
G1 X158.065 Y166.335 E0.03023
G1 X157.350 Y166.941 E0.02939
G1 X157.425 Y166.339 E0.01902
G1 X157.614 Y165.719 E0.02034
G1 X157.867 Y165.241 E0.01695
G1 X158.126 Y164.995 E0.01118
G1 X158.373 Y164.935 E0.00799
G1 X158.617 Y165.025 E0.00816
G1 X158.777 Y165.248 E0.00859
G1 X158.784 Y165.341 E0.00291
G1 X159.160 Y165.313 F10800.000
G1 F1200
G1 X159.170 Y165.458 E0.00455
G1 X159.032 Y165.814 E0.01199
G1 X158.329 Y166.606 E0.03320
G1 X157.375 Y167.414 E0.03921
G1 X156.910 Y167.971 E0.02275
G1 X156.880 Y167.651 E0.01007
G1 X157.055 Y166.260 E0.04395
G1 X157.264 Y165.574 E0.02248
G1 X157.562 Y165.010 E0.02002
G1 X157.939 Y164.653 E0.01627
G1 X158.396 Y164.542 E0.01474
G1 X158.856 Y164.712 E0.01539
G1 X159.145 Y165.115 E0.01554
G1 X159.155 Y165.253 E0.00436
G1 X159.052 Y165.410 F10800.000
G1 F8640
G1 X159.170 Y165.458 E-0.04733
G1 X159.032 Y165.814 E-0.08829
G1 X158.329 Y166.606 E-0.24448
G1 X157.375 Y167.414 E-0.28878
G1 X157.122 Y167.717 E-0.09112
G1 E-0.04000 F2100.00000
G1 Z0.800 F10800.000
G1 X173.152 Y159.710
G1 Z0.200
G1 E0.80000 F2100.00000
G1 F1200
G1 X173.114 Y159.304 E0.01276
G1 X173.293 Y158.958 E0.01223
G1 X173.441 Y158.875 E0.00532
G1 X173.750 Y158.835 E0.00975
G1 X174.201 Y158.906 E0.01434
G1 X174.776 Y159.121 E0.01924
G1 X175.928 Y159.791 E0.04178
G1 X175.003 Y160.141 E0.03101
G1 X174.280 Y160.286 E0.02313
G1 X173.922 Y160.266 E0.01125
G1 X173.594 Y160.146 E0.01096
G1 X173.315 Y159.935 E0.01095
G1 X173.188 Y159.758 E0.00683
G1 X172.787 Y159.847 F10800.000
G1 F1200
G1 X172.728 Y159.230 E0.01946
G1 X173.010 Y158.684 E0.01926
G1 X173.320 Y158.511 E0.01114
G1 X173.755 Y158.454 E0.01373
G1 X174.297 Y158.540 E0.01723
G1 X174.938 Y158.779 E0.02143
G1 X176.668 Y159.784 E0.06275
G1 X175.920 Y160.197 E0.02678
G1 X175.108 Y160.505 E0.02724
G1 X174.307 Y160.665 E0.02561
G1 X173.845 Y160.640 E0.01451
G1 X173.411 Y160.481 E0.01450
G1 X173.042 Y160.202 E0.01449
G1 X172.822 Y159.896 E0.01181
G1 X173.052 Y159.548 F10800.000
G1 F8640
G1 X172.728 Y159.230 E-0.15540
G1 X173.010 Y158.684 E-0.14186
G1 X173.320 Y158.511 E-0.08203
G1 X173.755 Y158.454 E-0.10110
G1 X174.297 Y158.540 E-0.12690
G1 X174.917 Y158.771 E-0.15271
G1 E-0.04000 F2100.00000
G1 Z0.800 F10800.000
G1 X144.731 Y153.117
G1 Z0.200
G1 E0.80000 F2100.00000
G1 F1200
G1 X144.550 Y153.151 E0.00578
G1 X144.480 Y152.979 E0.00581
G1 X144.071 Y152.345 E0.02366
G1 X143.363 Y151.628 E0.03160
G1 X142.522 Y151.073 E0.03158
G1 X141.606 Y150.662 E0.03148
G1 X140.642 Y150.368 E0.03161
G1 X138.776 Y150.058 E0.05929
G1 X137.152 Y149.983 E0.05099
G1 X134.778 Y150.150 E0.07462
G1 X134.778 Y149.692 E0.01436
G1 X135.313 Y149.685 E0.01678
G1 X137.063 Y149.563 E0.05502
G1 X139.606 Y149.446 E0.07982
G1 X140.964 Y149.495 E0.04258
G1 X142.260 Y149.680 E0.04105
G1 X143.202 Y150.068 E0.03194
G1 X143.966 Y150.714 E0.03136
G1 X144.494 Y151.563 E0.03136
G1 X144.741 Y152.547 E0.03182
G1 X144.732 Y153.057 E0.01600
G1 F8640
G1 X144.550 Y153.151 E-0.04736
G1 X144.480 Y152.979 E-0.04282
G1 X144.071 Y152.345 E-0.17427
G1 X143.363 Y151.628 E-0.23272
G1 X142.522 Y151.073 E-0.23255
G1 X142.403 Y151.019 E-0.03027
G1 E-0.04000 F2100.00000
G1 Z0.800 F10800.000
G1 X144.564 Y154.567
G1 Z0.200
G1 E0.80000 F2100.00000
G1 F1200
G1 X144.399 Y153.777 E0.02530
G1 X144.144 Y153.154 E0.02110
G1 X143.775 Y152.582 E0.02135
G1 X143.122 Y151.921 E0.02914
G1 X142.340 Y151.405 E0.02939
G1 X141.473 Y151.016 E0.02978
G1 X140.555 Y150.736 E0.03009
G1 X138.737 Y150.434 E0.05781
G1 X137.156 Y150.361 E0.04960
G1 X134.706 Y150.533 E0.07701
G1 X134.401 Y150.582 E0.00971
G1 X134.401 Y149.319 E0.03958
G1 X135.298 Y149.308 E0.02812
G1 X137.042 Y149.186 E0.05482
G1 X139.605 Y149.068 E0.08045
G1 X140.997 Y149.119 E0.04369
G1 X142.360 Y149.313 E0.04315
G1 X143.400 Y149.742 E0.03528
