; generated by Slic3r Prusa Edition 1.41.0+ on 2018-12-12 at 01:39:51

; 

; external perimeters extrusion width = 0.45mm
; perimeters extrusion width = 0.45mm
; infill extrusion width = 0.45mm
; solid infill extrusion width = 0.45mm
; top infill extrusion width = 0.40mm
; first layer extrusion width = 0.42mm

; external perimeters extrusion width = 0.45mm
; perimeters extrusion width = 0.45mm
; infill extrusion width = 0.45mm
; solid infill extrusion width = 0.45mm
; top infill extrusion width = 0.40mm
; first layer extrusion width = 0.42mm

; external perimeters extrusion width = 0.45mm
; perimeters extrusion width = 0.45mm
; infill extrusion width = 0.45mm
; solid infill extrusion width = 0.45mm
; top infill extrusion width = 0.40mm
; first layer extrusion width = 0.42mm

; external perimeters extrusion width = 0.45mm
; perimeters extrusion width = 0.45mm
; infill extrusion width = 0.45mm
; solid infill extrusion width = 0.45mm
; top infill extrusion width = 0.40mm
; first layer extrusion width = 0.42mm

M201 X9000 Y9000 Z500 E10000 ; sets maximum accelerations, mm/sec^2
M203 X500 Y500 Z12 E120 ; sets maximum feedrates, mm/sec
M204 P2000 R1500 T2000 ; sets acceleration (P, T) and retract acceleration (R), mm/sec^2
M205 X10.00 Y10.00 Z0.20 E2.50 ; sets the jerk limits, mm/sec
M205 S0 T0 ; sets the minimum extruding and travel feed rate, mm/sec
M107
M115 U3.4.1 ; tell printer latest fw version
M83  ; extruder relative mode
M104 S215 ; set extruder temp
M140 S60 ; set bed temp
M190 S60 ; wait for bed temp
M109 S215 ; wait for extruder temp
G28 W ; home all without mesh bed level
G80 ; mesh bed leveling
G1 Y-3.0 F1000.0 ; go outside print area
G92 E0.0
G1 X60.0 E9.0  F1000.0 ; intro line
M73 P0 R48
G1 X100.0 E12.5  F1000.0 ; intro line
G92 E0.0
M900 K30; Filament gcode
G21 ; set units to millimeters
G90 ; use absolute coordinates
M83 ; use relative distances for extrusion
T0
M900 K30; Filament gcode
;BEFORE_LAYER_CHANGE
G92 E0.0
;0.2


G1 E-0.80000 F2100.00000
G1 Z0.600 F10800.000
;AFTER_LAYER_CHANGE
;0.2
G1 X155.662 Y140.838
G1 Z0.200
G1 E0.80000 F2100.00000
M204 S1000
G1 F1200
G1 X155.343 Y141.390 E0.01998
G1 X154.876 Y141.829 E0.02010
G1 X154.306 Y142.112 E0.01998
G1 X153.674 Y142.220 E0.02010
G1 X96.365 Y142.220 E1.79687
G1 X95.566 Y142.066 E0.02552
G1 X95.020 Y141.752 E0.01976
G1 X94.583 Y141.292 E0.01987
G1 X94.298 Y140.730 E0.01976
G1 X94.185 Y140.107 E0.01987
G1 X94.184 Y102.714 E1.17242
G1 X94.264 Y100.231 E0.07790
G1 X94.478 Y97.947 E0.07194
G1 X94.828 Y95.717 E0.07077
G1 X95.322 Y93.505 E0.07105
G1 X95.893 Y91.534 E0.06434
G1 X96.582 Y89.603 E0.06430
G1 X97.354 Y87.794 E0.06166
G1 X98.228 Y86.041 E0.06140
G1 X99.150 Y84.429 E0.05824
G1 X101.100 Y81.569 E0.10854
G1 X102.178 Y80.222 E0.05409
G1 X104.268 Y77.943 E0.09696
G1 X106.366 Y76.005 E0.08957
G1 X107.603 Y74.993 E0.05009
G1 X108.838 Y74.068 E0.04839
G1 X111.308 Y72.435 E0.09282
G1 X113.776 Y71.056 E0.08865
G1 X116.256 Y69.898 E0.08580
G1 X118.633 Y68.997 E0.07972
G1 X120.913 Y68.336 E0.07443
G1 X123.040 Y67.927 E0.06792
G1 X125.004 Y67.780 E0.06176
G1 X126.958 Y67.923 E0.06144
G1 X129.087 Y68.332 E0.06795
G1 X131.367 Y68.994 E0.07447
G1 X133.743 Y69.894 E0.07964
G1 X136.225 Y71.052 E0.08589
G1 X138.691 Y72.431 E0.08860
G1 X141.162 Y74.064 E0.09286
G1 X142.395 Y74.988 E0.04830
G1 X143.634 Y76.001 E0.05019
G1 X145.732 Y77.940 E0.08957
G1 X147.823 Y80.218 E0.09696
G1 X148.899 Y81.564 E0.05403
G1 X150.849 Y84.424 E0.10854
G1 X151.771 Y86.035 E0.05821
G1 X152.646 Y87.791 E0.06150
G1 X153.401 Y89.559 E0.06029
G1 X154.108 Y91.532 E0.06570
G1 X154.677 Y93.498 E0.06417
G1 X155.158 Y95.645 E0.06898
G1 X155.522 Y97.947 E0.07307
G1 X155.743 Y100.336 E0.07524
G1 X155.816 Y102.753 E0.07582
G1 X155.816 Y140.035 E1.16895
G1 X155.673 Y140.779 E0.02375
; PURGING FINISHED
G1 F8640
G1 X155.343 Y141.390 E-0.16031
G1 X154.876 Y141.829 E-0.14799
G1 X154.306 Y142.112 E-0.14716
G1 X153.674 Y142.220 E-0.14799
G1 X152.996 Y142.220 E-0.15654
G1 E-0.04000 F2100.00000
G1 Z0.800 F10800.000
G1 X125.901 Y135.997
G1 Z0.200
G1 E0.80000 F2100.00000
G1 F1200
G1 X125.680 Y136.046 E0.00710
G1 X125.320 Y136.190 E0.01215
G1 X125.031 Y136.495 E0.01318
G1 X124.533 Y137.381 E0.03187
G1 X124.056 Y136.525 E0.03072
G1 X123.700 Y136.189 E0.01534
G1 X123.231 Y136.009 E0.01577
G1 X123.204 Y135.901 E0.00349
G1 X123.222 Y135.792 E0.00345
G1 X123.488 Y135.599 E0.01029
G1 X123.894 Y135.402 E0.01417
G1 X124.272 Y134.925 E0.01906
G1 X124.133 Y134.647 E0.00976
G1 X124.979 Y134.671 E0.02654
G1 X125.866 Y135.948 E0.04875
G1 F8640
G1 X125.680 Y136.046 E-0.04874
G1 X125.320 Y136.190 E-0.08950
G1 X125.031 Y136.495 E-0.09705
G1 X124.533 Y137.381 E-0.23467
G1 X124.056 Y136.525 E-0.22625
G1 X123.855 Y136.335 E-0.06379
G1 E-0.04000 F2100.00000
G1 Z0.800 F10800.000
G1 X126.798 Y134.402
G1 Z0.200
G1 E0.80000 F2100.00000
G1 F1200
G1 X126.659 Y134.298 E0.00545
G1 X126.149 Y134.038 E0.01795
G1 X125.900 Y134.019 E0.00782
G1 X125.673 Y133.528 E0.01697
G1 X127.481 Y133.568 E0.05671
G1 X127.537 Y134.007 E0.01389
G1 X127.389 Y134.030 E0.00470
G1 X126.927 Y134.299 E0.01675
G1 X126.845 Y134.365 E0.00332
G1 X127.765 Y134.354 F10800.000
G1 F1200
G1 X127.516 Y134.392 E0.00789
G1 X127.141 Y134.610 E0.01362
G1 X126.805 Y134.879 E0.01348
G1 X126.459 Y134.619 E0.01358
G1 X126.045 Y134.408 E0.01457
G1 X125.784 Y134.389 E0.00820
G1 X125.384 Y134.594 E0.01408
G1 X126.286 Y135.891 E0.04953
G1 X126.250 Y136.131 E0.00762
G1 X126.123 Y136.334 E0.00749
G1 X125.791 Y136.408 E0.01064
G1 X125.537 Y136.509 E0.00860
G1 X125.340 Y136.718 E0.00899
G1 X125.102 Y137.163 E0.01582
G1 X124.803 Y137.664 E0.01828
G1 X124.658 Y137.794 E0.00613
G1 X124.495 Y137.840 E0.00529
G1 X124.393 Y137.822 E0.00325
G1 X124.316 Y137.766 E0.00299
G1 X123.754 Y136.759 E0.03614
G1 X123.495 Y136.514 E0.01118
G1 X122.980 Y136.316 E0.01731
G1 X122.891 Y136.206 E0.00443
G1 X122.819 Y135.916 E0.00939
G1 X122.858 Y135.682 E0.00742
G1 X122.952 Y135.522 E0.00582
G1 X123.293 Y135.275 E0.01320
G1 X123.652 Y135.100 E0.01251
G1 X123.827 Y134.879 E0.00884
G1 X123.762 Y134.748 E0.00459
G1 X123.807 Y134.664 E0.00301
G1 X123.371 Y134.421 E0.01565
G1 X123.418 Y134.250 E0.00557
G1 X124.967 Y134.293 E0.04856
G1 X125.243 Y134.237 E0.00885
G1 X125.355 Y134.112 E0.00526
G1 X125.550 Y134.167 E0.00635
G1 X125.313 Y133.654 E0.01773
G1 X124.971 Y133.558 E0.01112
G1 X120.958 Y133.446 E0.12588
G1 X120.985 Y133.159 E0.00906
G1 X122.298 Y133.117 E0.04118
G1 X124.601 Y133.127 E0.07223
G1 X127.821 Y133.198 E0.10097
G1 X127.888 Y133.827 E0.01983
G1 X127.999 Y134.463 E0.02024
G1 X127.820 Y134.380 E0.00620
G1 X127.545 Y134.233 F10800.000
G1 F8640
G1 X127.516 Y134.392 E-0.07011
G1 X127.141 Y134.610 E-0.10030
G1 X126.805 Y134.879 E-0.09926
G1 X126.459 Y134.619 E-0.09997
G1 X126.045 Y134.408 E-0.10727
G1 X125.784 Y134.389 E-0.06041
G1 X125.384 Y134.594 E-0.10368
G1 X125.678 Y135.017 E-0.11900
G1 E-0.04000 F2100.00000
G1 Z0.800 F10800.000
G1 X123.297 Y134.430
G1 Z0.200
G1 E0.80000 F2100.00000
G1 F1200
G1 X122.823 Y134.603 E0.01583
G1 X122.484 Y134.809 E0.01244
G1 X122.063 Y134.511 E0.01618
G1 X121.800 Y134.382 E0.00919
G1 X121.844 Y134.205 E0.00572
G1 X123.267 Y134.245 E0.04466
G1 X123.288 Y134.371 E0.00398
G1 X122.904 Y134.503 F10800.000
G1 F8640
G1 X122.823 Y134.603 E-0.11995
G1 X122.484 Y134.809 E-0.09159
G1 X122.063 Y134.511 E-0.11916
G1 X121.800 Y134.382 E-0.06764
G1 X121.844 Y134.205 E-0.04210
G1 X123.227 Y134.244 E-0.31956
G1 E-0.04000 F2100.00000
G1 Z0.800 F10800.000
G1 X121.421 Y135.701
G1 Z0.200
G1 E0.80000 F2100.00000
G1 F1200
G1 X121.279 Y135.807 E0.00556
G1 X120.841 Y135.887 E0.01394
G1 X121.034 Y135.208 E0.02213
G1 X121.384 Y135.654 E0.01777
G1 F8640
G1 X121.279 Y135.807 E-0.04287
G1 X120.841 Y135.887 E-0.10268
G1 X121.034 Y135.208 E-0.16299
G1 X121.384 Y135.654 E-0.13087
G1 E-0.36060 F2100.00000
G1 Z0.800 F10800.000
G1 X120.933 Y134.468
G1 Z0.200
G1 E0.80000 F2100.00000
G1 F1200
G1 X121.797 Y135.569 E0.04389
G1 X121.768 Y135.773 E0.00647
G1 X121.651 Y136.000 E0.00799
G1 X121.433 Y136.162 E0.00852
G1 X121.033 Y136.235 E0.01275
G1 X120.813 Y136.235 E0.00690
G1 X120.373 Y136.648 E0.01892
G1 X120.223 Y136.546 E0.00567
G1 X120.363 Y136.190 E0.01199
G1 X120.652 Y135.174 E0.03314
G1 X120.852 Y134.177 E0.03188
G1 X121.128 Y134.185 E0.00865
G1 X121.164 Y134.360 E0.00561
G1 X120.987 Y134.442 E0.00611
G1 X120.645 Y134.745 F10800.000
G1 F8640
G1 X121.797 Y135.569 E-0.32034
G1 X121.768 Y135.773 E-0.04765
G1 X121.651 Y136.000 E-0.05883
G1 X121.433 Y136.162 E-0.06278
G1 X121.033 Y136.235 E-0.09387
G1 X120.813 Y136.235 E-0.05084
G1 X120.416 Y136.608 E-0.12569
G1 E-0.04000 F2100.00000
G1 Z0.800 F10800.000
G1 X127.248 Y135.877
G1 Z0.200
G1 E0.80000 F2100.00000
G1 F1200
G1 X127.936 Y134.889 E0.03777
G1 X128.082 Y134.949 E0.00495
G1 X128.432 Y136.218 E0.04126
G1 X128.579 Y136.585 E0.01240
G1 X128.413 Y136.684 E0.00605
G1 X128.160 Y136.380 E0.01240
G1 X127.961 Y136.261 E0.00726
G1 X127.739 Y136.220 E0.00709
G1 X127.543 Y136.208 E0.00617
G1 X127.431 Y136.076 E0.00542
G1 X127.285 Y136.011 E0.00501
G1 X127.264 Y135.935 E0.00246
G1 X127.622 Y135.734 F10800.000
G1 F8640
G1 X127.936 Y134.889 E-0.28718
G1 X128.082 Y134.949 E-0.03643
G1 X128.432 Y136.218 E-0.30388
G1 X128.579 Y136.585 E-0.09134
G1 X128.426 Y136.676 E-0.04117
G1 E-0.04000 F2100.00000
G1 Z0.800 F10800.000
G1 X144.696 Y134.566
G1 Z0.200
G1 E0.80000 F2100.00000
G1 F1200
G1 X144.730 Y134.466 E0.00332
G1 X144.882 Y134.294 E0.00721
G1 X145.088 Y134.236 E0.00671
G1 X145.167 Y134.255 E0.00255
G1 X145.250 Y134.328 E0.00345
G1 X146.004 Y135.571 E0.04560
G1 X145.603 Y135.463 E0.01304
G1 X145.205 Y135.242 E0.01427
G1 X144.804 Y134.890 E0.01673
G1 X144.730 Y134.789 E0.00391
G1 X144.696 Y134.626 E0.00522
G1 X144.793 Y134.524 F10800.000
G1 F8640
G1 X144.730 Y134.466 E-0.03782
G1 X144.882 Y134.294 E-0.05306
G1 X145.088 Y134.236 E-0.04940
G1 X145.167 Y134.255 E-0.01876
G1 X145.250 Y134.328 E-0.02544
G1 X146.004 Y135.571 E-0.33581
G1 X145.603 Y135.463 E-0.09600
G1 X145.205 Y135.242 E-0.10512
G1 X145.079 Y135.132 E-0.03858
G1 E-0.04000 F2100.00000
G1 Z0.800 F10800.000
G1 X140.833 Y133.197
G1 Z0.200
G1 E0.80000 F2100.00000
G1 F1200
G1 X140.784 Y133.321 E0.00417
G1 X140.475 Y133.669 E0.01461
G1 X140.013 Y134.061 E0.01900
G1 X140.069 Y133.611 E0.01420
G1 X140.161 Y133.311 E0.00986
G1 X140.286 Y133.073 E0.00843
G1 X140.427 Y132.940 E0.00608
G1 X140.578 Y132.903 E0.00487
G1 X140.729 Y132.959 E0.00503
G1 X140.825 Y133.093 E0.00519
G1 X140.828 Y133.137 E0.00137
G1 X140.711 Y133.250 F10800.000
G1 F8640
G1 X140.784 Y133.321 E-0.04366
G1 X140.475 Y133.669 E-0.10757
G1 X140.013 Y134.061 E-0.13996
G1 X140.069 Y133.611 E-0.10454
G1 X140.161 Y133.311 E-0.07258
G1 X140.286 Y133.073 E-0.06208
G1 X140.427 Y132.940 E-0.04477
G1 X140.578 Y132.903 E-0.03589
G1 X140.729 Y132.959 E-0.03706
G1 X140.825 Y133.093 E-0.03819
G1 X140.828 Y133.137 E-0.01011
G1 E-0.10358 F2100.00000
G1 Z0.800 F10800.000
G1 X147.409 Y130.554
G1 Z0.200
G1 E0.80000 F2100.00000
G1 F1200
G1 X147.388 Y130.329 E0.00709
G1 X147.489 Y130.134 E0.00690
G1 X147.585 Y130.080 E0.00347
G1 X147.751 Y130.058 E0.00522
G1 X147.908 Y130.083 E0.00499
G1 X148.259 Y130.200 E0.01162
G1 X148.915 Y130.581 E0.02376
G1 X148.352 Y130.794 E0.01886
G1 X148.004 Y130.865 E0.01116
G1 X147.817 Y130.854 E0.00586
G1 X147.646 Y130.792 E0.00572
G1 X147.501 Y130.682 E0.00571
G1 X147.444 Y130.603 E0.00303
G1 X147.559 Y130.385 F10800.000
G1 F8640
G1 X147.388 Y130.329 E-0.06456
G1 X147.489 Y130.134 E-0.05082
G1 X147.585 Y130.080 E-0.02555
G1 X147.751 Y130.058 E-0.03847
G1 X147.908 Y130.083 E-0.03678
G1 X148.259 Y130.200 E-0.08555
G1 X148.915 Y130.581 E-0.17501
G1 X148.352 Y130.794 E-0.13887
G1 X148.004 Y130.865 E-0.08215
G1 X147.817 Y130.854 E-0.04314
G1 X147.739 Y130.826 E-0.01911
G1 E-0.04000 F2100.00000
G1 Z0.800 F10800.000
G1 X134.271 Y127.523
G1 Z0.200
G1 E0.80000 F2100.00000
G1 F1200
G1 X134.089 Y127.557 E0.00578
G1 X134.034 Y127.420 E0.00462
G1 X133.850 Y127.134 E0.01065
G1 X133.528 Y126.809 E0.01433
G1 X133.146 Y126.557 E0.01436
G1 X132.727 Y126.369 E0.01440
G1 X132.285 Y126.234 E0.01449
G1 X131.422 Y126.091 E0.02742
G1 X130.672 Y126.056 E0.02356
G1 X129.499 Y126.138 E0.03686
G1 X129.499 Y125.793 E0.01084
G1 X131.816 Y125.677 E0.07274
G1 X132.455 Y125.701 E0.02006
G1 X133.072 Y125.788 E0.01951
G1 X133.528 Y125.976 E0.01547
G1 X133.900 Y126.291 E0.01527
G1 X134.157 Y126.704 E0.01526
G1 X134.277 Y127.181 E0.01543
G1 X134.272 Y127.463 E0.00883
G1 X134.098 Y127.459 F10800.000
G1 F8640
G1 X134.089 Y127.557 E-0.04736
G1 X134.034 Y127.420 E-0.03406
G1 X133.850 Y127.134 E-0.07843
G1 X133.528 Y126.809 E-0.10553
G1 X133.146 Y126.557 E-0.10577
G1 X132.727 Y126.369 E-0.10608
G1 X132.285 Y126.234 E-0.10674
G1 X131.533 Y126.109 E-0.17603
G1 E-0.04000 F2100.00000
G1 Z0.800 F10800.000
G1 X128.490 Y126.302
G1 Z0.200
G1 E0.80000 F2100.00000
G1 F1200
G1 X127.811 Y125.969 E0.02981
G1 X127.504 Y125.784 E0.01413
G1 X127.197 Y125.598 E0.01750
G1 F8640
G1 X127.504 Y125.784 E-0.08279
G1 E-0.71721 F2100.00000
G1 Z0.800 F10800.000
G1 X144.404 Y124.551
G1 Z0.200
G1 E0.80000 F2100.00000
G1 F1200
G1 X144.419 Y124.438 E0.00359
G1 X144.530 Y124.245 E0.00700
G1 X144.753 Y124.076 E0.00875
G1 X145.121 Y124.000 E0.01178
G1 X145.658 Y124.068 E0.01698
G1 X145.073 Y124.667 E0.02624
G1 X144.937 Y124.744 E0.00491
G1 X144.785 Y124.777 E0.00488
G1 X144.641 Y124.766 E0.00453
G1 X144.482 Y124.684 E0.00561
G1 X144.435 Y124.603 E0.00294
G1 X144.491 Y124.476 F10800.000
G1 F8640
G1 X144.419 Y124.438 E-0.03836
G1 X144.530 Y124.245 E-0.05155
G1 X144.753 Y124.076 E-0.06440
G1 X145.121 Y124.000 E-0.08679
G1 X145.658 Y124.068 E-0.12501
G1 X145.073 Y124.667 E-0.19321
G1 X144.937 Y124.744 E-0.03615
G1 X144.785 Y124.777 E-0.03591
G1 X144.641 Y124.766 E-0.03336
G1 X144.482 Y124.684 E-0.04132
G1 X144.435 Y124.603 E-0.02167
G1 E-0.07228 F2100.00000
G1 Z0.800 F10800.000
G1 X148.219 Y111.008
G1 Z0.200
G1 E0.80000 F2100.00000
G1 F1200
G1 X147.724 Y110.850 E0.01630
G1 X147.463 Y110.712 E0.00924
G1 X147.286 Y110.573 E0.00705
G1 X147.149 Y110.367 E0.00775
G1 X147.125 Y110.191 E0.00560
G1 X147.175 Y110.048 E0.00475
G1 X147.271 Y109.972 E0.00385
G1 X147.413 Y109.947 E0.00452
G1 X147.516 Y109.968 E0.00327
G1 X147.612 Y110.031 E0.00359
G1 X147.859 Y110.347 E0.01260
G1 X148.190 Y110.955 E0.02171
G1 X147.877 Y110.801 F10800.000
G1 F8640
G1 X147.724 Y110.850 E-0.11042
G1 X147.463 Y110.712 E-0.06803
G1 X147.286 Y110.573 E-0.05192
G1 X147.149 Y110.367 E-0.05708
G1 X147.125 Y110.191 E-0.04123
G1 X147.175 Y110.048 E-0.03495
G1 X147.271 Y109.972 E-0.02839
G1 X147.413 Y109.947 E-0.03331
G1 X147.516 Y109.968 E-0.02410
G1 X147.612 Y110.031 E-0.02645
G1 X147.859 Y110.347 E-0.09279
G1 X148.190 Y110.955 E-0.15990
G1 E-0.07143 F2100.00000
G1 Z0.800 F10800.000
G1 X149.748 Y106.608
G1 Z0.200
G1 E0.80000 F2100.00000
G1 F1200
G1 X149.599 Y106.550 E0.00501
G1 X149.469 Y106.440 E0.00533
G1 X149.359 Y106.291 E0.00579
G1 X149.296 Y106.135 E0.00530
G1 X149.279 Y105.986 E0.00469
G1 X149.303 Y105.874 E0.00359
G1 X149.372 Y105.786 E0.00349
G1 X149.496 Y105.711 E0.00456
G1 X149.847 Y105.632 E0.01126
G1 X150.475 Y105.663 E0.01972
G1 X151.044 Y105.599 E0.01795
G1 X150.817 Y105.910 E0.01206
G1 X150.421 Y106.313 E0.01771
G1 X150.060 Y106.569 E0.01388
G1 X149.907 Y106.614 E0.00500
G1 X149.808 Y106.610 E0.00313
G1 X149.698 Y106.456 F10800.000
G1 F8640
G1 X149.599 Y106.550 E-0.05020
G1 X149.469 Y106.440 E-0.03923
G1 X149.359 Y106.291 E-0.04265
G1 X149.296 Y106.135 E-0.03905
G1 X149.279 Y105.986 E-0.03452
G1 X149.303 Y105.874 E-0.02646
G1 X149.372 Y105.786 E-0.02568
G1 X149.496 Y105.711 E-0.03362
G1 X149.847 Y105.632 E-0.08291
G1 X150.475 Y105.663 E-0.14521
G1 X151.044 Y105.599 E-0.13221
G1 X150.817 Y105.910 E-0.08880
G1 X150.758 Y105.970 E-0.01947
G1 E-0.04000 F2100.00000
G1 Z0.800 F10800.000
G1 X140.450 Y104.389
G1 Z0.200
G1 E0.80000 F2100.00000
G1 F1200
G1 X140.371 Y104.484 E0.00389
G1 X140.240 Y104.533 E0.00436
G1 X140.141 Y104.518 E0.00314
G1 X140.023 Y104.380 E0.00569
G1 X139.958 Y104.191 E0.00629
G1 X139.958 Y103.976 E0.00673
G1 X140.021 Y103.745 E0.00753
G1 X140.255 Y103.298 E0.01581
G1 X140.473 Y103.990 E0.02276
